packages/blockchain-info-components/src/Images/img/banks/bank-logo-ally.svg

<svg fill="none" height="32" viewBox="0 0 32 32" width="32" xmlns="http://www.w3.org/2000/svg"><path d="m27.8404 16.0762c0-1.6682-.2901-3.2385-.8703-4.7108-.5803-1.47237-1.389-2.74888-2.4261-3.82959-1.0372-1.08067-2.2775-1.94013-3.7208-2.57841-1.4433-.63824-3.0281-.95737-4.7543-.9574-7.50957 0-12.0689 5.31998-12.0689 12.0762 0 6.6144 5.19313 11.7866 10.7561 11.9238l6.1546-6.8098-.1002-.1692v6.5003h7.0299zm-7.0552 4.9704-4.8432.0123c-3.3187 0-6.98788-4.7763-3.2457-8.5185 3.3203-3.32032 8.2955-.5971 8.2955 4.0235z" fill="#5c105d"/></svg>

<svg width="32" height="32" viewBox="0 0 32 32" fill="none" xmlns="http://www.w3.org/2000/svg">
<path d="M27.8404 16.0762C27.8404 14.408 27.5503 12.8377 26.9701 11.3654C26.3898 9.89303 25.5811 8.61652 24.544 7.53581C23.5068 6.45514 22.2665 5.59568 20.8232 4.9574C19.3799 4.31916 17.7951 4.00003 16.0689 4C8.55933 4 4 9.31998 4 16.0762C4 22.6906 9.19313 27.8628 14.7561 28L20.9107 21.1902L20.8105 21.021V27.5213H27.8404V16.0762ZM20.7852 21.0466L15.942 21.0589C12.6233 21.0589 8.95412 16.2826 12.6963 12.5404C16.0166 9.22008 20.9918 11.9433 20.9918 16.5639L20.7852 21.0466Z" fill="#5C105D"/>
</svg>
